assets/icons/scanit.svg

<svg width="13" height="14" viewBox="0 0 13 14" fill="none" xmlns="http://www.w3.org/2000/svg">
<path d="M0.813656 6.18334L0.81468 6.18333L12.1844 6.18333H12.1848L0.813656 6.18334ZM0.813656 6.18334C0.690532 6.18418 0.572726 6.23362 0.485887 6.32091C0.399048 6.4082 0.350207 6.52626 0.35 6.64938V6.64964M0.813656 6.18334L0.35 6.64964M0.35 6.64964V7.01676C0.35 7.27695 0.557736 7.48306 0.81468 7.48306L12.1853 7.48307L12.1863 7.48306M0.35 6.64964L12.1863 7.48306M12.1863 7.48306C12.3095 7.48222 12.4273 7.43277 12.5141 7.34549C12.601 7.2582 12.6498 7.14014 12.65 7.01701V7.01676M12.1863 7.48306L12.65 7.01676M12.65 7.01676V6.65034M12.65 7.01676V6.65034M12.65 6.65034V6.64964H12.5L12.65 6.65034ZM1.65027 11.3583V11.3358V8.33333V8.18333H1.50027H0.5H0.35V8.33333V12.1073C0.35 12.6833 0.816784 13.1495 1.39213 13.1495H4.83306H4.98306V12.9995V11.9997V11.8497H4.83306H2.16394C2.02763 11.8495 1.89697 11.7953 1.80058 11.6989C1.70958 11.6079 1.65614 11.4863 1.65027 11.3583ZM4.83252 2.15027H4.98252V2.00027V1V0.85H4.83252H1.39213C1.11574 0.85 0.850672 0.959796 0.655234 1.15523C0.459796 1.35067 0.35 1.61574 0.35 1.89213V5V5.15H0.5H1.50027H1.65027V5V2.66423V2.66392C1.65064 2.52788 1.70481 2.39751 1.80097 2.30127C1.89712 2.20505 2.02742 2.15077 2.16343 2.15027H4.83252ZM11.3503 8.33333V11.2736L11.3499 11.274L11.3497 11.3359C11.3494 11.4722 11.2951 11.6027 11.1987 11.699C11.1024 11.7953 10.9718 11.8495 10.8355 11.8497H8.16694H8.01694V11.9997V13V13.15H8.16694H11.6084C11.8848 13.15 12.1499 13.0402 12.3453 12.8448C12.5407 12.6493 12.6505 12.3843 12.6505 12.1079V8.33333V8.18333H12.5005H11.5003H11.3503V8.33333ZM8.1664 0.85H8.0164V1V2.00027V2.15027H8.1664L10.8355 2.15027C10.8355 2.15027 10.8356 2.15027 10.8356 2.15027C10.9718 2.15051 11.1024 2.2047 11.1987 2.30097C11.2951 2.39727 11.3494 2.52782 11.3497 2.66406V4.99946V5.14946H11.4997H12.5H12.65V4.99946V1.89213C12.65 1.61574 12.5402 1.35067 12.3448 1.15523C12.1493 0.959796 11.8843 0.85 11.6079 0.85H8.1664Z" fill="#3971F3" stroke="#3971F3" stroke-width="0.3"/>
</svg>

<svg xmlns="http://www.w3.org/2000/svg" width="13" height="14" fill="none" data-c="1"><path fill="#3971F3" stroke="#3971F3" stroke-width=".3" d="M.814 6.183h11.37zm0 0a.467.467 0 0 0-.464.466m.464-.466L.35 6.65m0 0v.367c0 .26.208.466.465.466h11.371M.35 6.65l11.836.833m0 0a.467.467 0 0 0 .464-.466m-.464.466.464-.466m0 0V6.65m0 .367V6.65m0 0h-.15zm-11 4.708V8.183H.35v3.924c0 .576.467 1.043 1.042 1.043h3.591v-1.3h-2.82a.515.515 0 0 1-.513-.492ZM4.833 2.15h.15V.85h-3.59A1.04 1.04 0 0 0 .35 1.892V5.15h1.3V2.664a.515.515 0 0 1 .513-.514zm6.517 6.183v3.003a.515.515 0 0 1-.514.514h-2.82v1.3h3.592a1.04 1.04 0 0 0 1.042-1.042V8.183h-1.3zM8.166.85h-.15v1.3h2.82a.515.515 0 0 1 .514.514V5.15h1.3V1.892A1.04 1.04 0 0 0 11.608.85z"/></svg>
